tools/download-figma-icons/icons/outlined-large/tipi.svg

<svg width="64" height="64" viewBox="0 0 64 64" fill="none" xmlns="http://www.w3.org/2000/svg">
<path fill-rule="evenodd" clip-rule="evenodd" d="M38.133 60.9995L32 48.0135L25.867 60.9995H38.133ZM30.982 32.6035L25.815 27.8335L10.271 60.9995H22.55L30.644 43.8605C30.6492 43.8478 30.6564 43.8372 30.6636 43.8263C30.669 43.8184 30.6743 43.8104 30.679 43.8015C30.703 43.7545 30.731 43.7085 30.762 43.6635C30.787 43.6265 30.813 43.5895 30.842 43.5545C30.874 43.5145 30.91 43.4765 30.947 43.4395C30.979 43.4085 31.013 43.3765 31.048 43.3475C31.087 43.3155 31.13 43.2845 31.173 43.2555C31.212 43.2305 31.252 43.2055 31.293 43.1845C31.2971 43.1821 31.3012 43.1796 31.3052 43.177C31.3089 43.1746 31.3126 43.1721 31.3163 43.1697C31.33 43.1606 31.3437 43.1516 31.359 43.1445C31.3674 43.1405 31.3759 43.1373 31.3844 43.1344C31.3906 43.1323 31.3968 43.1303 31.4031 43.1284L31.4115 43.1258C31.4194 43.1233 31.4272 43.1206 31.435 43.1175C31.478 43.1005 31.521 43.0845 31.564 43.0725C31.615 43.0565 31.666 43.0425 31.718 43.0335C31.761 43.0245 31.804 43.0195 31.848 43.0145C31.9 43.0085 31.953 43.0055 32.006 43.0055C32.051 43.0055 32.095 43.0085 32.14 43.0135C32.191 43.0185 32.242 43.0245 32.293 43.0345C32.338 43.0425 32.382 43.0555 32.426 43.0685C32.477 43.0835 32.526 43.1005 32.575 43.1205C32.5842 43.1243 32.5933 43.1272 32.6025 43.13C32.6153 43.1341 32.6282 43.1381 32.641 43.1445C32.653 43.1502 32.6637 43.1572 32.6743 43.1643L32.6744 43.1643C32.6824 43.1696 32.6904 43.1748 32.699 43.1795C32.746 43.2035 32.791 43.2315 32.836 43.2615C32.874 43.2865 32.912 43.3145 32.947 43.3435C32.986 43.3745 33.022 43.4095 33.058 43.4445C33.093 43.4795 33.126 43.5145 33.156 43.5525C33.187 43.5885 33.214 43.6265 33.24 43.6655C33.27 43.7095 33.297 43.7545 33.321 43.8015C33.3257 43.8104 33.331 43.8184 33.3363 43.8263C33.3436 43.8371 33.3508 43.8478 33.356 43.8605L41.45 60.9995H53.711L38.18 27.8385L33.018 32.6035C33.0113 32.6097 33.0039 32.6132 32.9966 32.6166C32.9897 32.6199 32.9829 32.6232 32.977 32.6285C32.847 32.7415 32.706 32.8305 32.554 32.8915C32.5489 32.8937 32.5439 32.8954 32.539 32.897C32.5336 32.8988 32.5282 32.9003 32.5229 32.9018L32.5227 32.9018C32.5146 32.9041 32.5064 32.9064 32.498 32.9095C32.337 32.9655 32.169 33.0005 32 33.0005C31.831 33.0005 31.663 32.9655 31.502 32.9095C31.4939 32.9065 31.486 32.9043 31.4782 32.9021C31.4676 32.8991 31.4573 32.8961 31.447 32.8915C31.295 32.8305 31.153 32.7415 31.023 32.6285C31.0171 32.6232 31.0103 32.6199 31.0034 32.6166C30.9961 32.6132 30.9887 32.6097 30.982 32.6035ZM32 29.4585L36.844 24.9885L31.998 14.6425L27.151 24.9835L32 29.4585ZM57.003 60.9995H62.5C63.328 60.9995 64 61.6715 64 62.4995C64 63.3275 63.328 63.9995 62.5 63.9995H1.5C0.672 63.9995 0 63.3275 0 62.4995C0 61.6715 0.672 60.9995 1.5 60.9995H6.979L6.98877 60.969L6.99222 60.958C7.00617 60.9136 7.02018 60.869 7.04 60.8255L30.342 11.1055L26.142 2.13753C25.79 1.38753 26.113 0.494533 26.864 0.143533C27.61 -0.211467 28.507 0.115533 28.858 0.866533L31.999 7.57153L35.142 0.865533C35.492 0.115533 36.385 -0.211467 37.137 0.143533C37.887 0.494533 38.21 1.38853 37.858 2.13853L33.655 11.1075L56.941 60.8265C56.9601 60.8662 56.9732 60.9074 56.9864 60.9487C56.9918 60.9657 56.9972 60.9826 57.003 60.9995ZM33.5 38.5008C33.5 39.3288 32.828 40.0008 32 40.0008C31.172 40.0008 30.5 39.3288 30.5 38.5008C30.5 37.6718 31.172 37.0008 32 37.0008C32.828 37.0008 33.5 37.6718 33.5 38.5008ZM37.5 40.034C38.328 40.034 39 39.362 39 38.534C39 37.706 38.328 37.034 37.5 37.034C36.672 37.034 36 37.706 36 38.534C36 39.362 36.672 40.034 37.5 40.034ZM28 38.534C28 39.362 27.328 40.034 26.5 40.034C25.672 40.034 25 39.362 25 38.534C25 37.706 25.672 37.034 26.5 37.034C27.328 37.034 28 37.706 28 38.534Z" fill="black"/>
</svg>

<svg xmlns="http://www.w3.org/2000/svg" width="64" height="64" fill="none" viewBox="0 0 64 64"><path fill="currentColor" fill-rule="evenodd" d="M38.133 61 32 48.013l-6.133 12.985zm-7.151-28.397-5.167-4.77L10.271 61H22.55l8.094-17.14q.008-.018.02-.034l.015-.025q.036-.07.083-.138a1.4 1.4 0 0 1 .286-.316 1.7 1.7 0 0 1 .257-.17l.011-.007a.3.3 0 0 1 .087-.042l.009-.002.023-.008q.064-.028.129-.046a1.2 1.2 0 0 1 .284-.058 1.4 1.4 0 0 1 .445.02q.067.014.133.035a2 2 0 0 1 .176.061q.02.005.039.014l.033.02.025.015a1.4 1.4 0 0 1 .248.164q.058.047.111.101.053.052.098.108t.084.114q.045.066.081.136l.015.024q.012.016.02.035L41.45 61h12.261L38.18 27.838l-5.162 4.765-.021.014-.02.012a1.5 1.5 0 0 1-.438.268l-.016.005q-.013.003-.025.008A1.5 1.5 0 0 1 32 33c-.169 0-.337-.035-.498-.09l-.024-.008-.031-.01a1.5 1.5 0 0 1-.424-.264l-.02-.011zM32 29.458l4.844-4.47-4.846-10.345-4.847 10.34zM57.003 61H62.5a1.5 1.5 0 0 1 0 3h-61a1.5 1.5 0 0 1 0-3h5.479l.01-.031.003-.011q.02-.066.048-.133l23.302-49.72-4.2-8.967a1.5 1.5 0 0 1 .722-1.994 1.497 1.497 0 0 1 1.994.723l3.141 6.705L35.142.866a1.5 1.5 0 1 1 2.716 1.273l-4.203 8.969 23.286 49.719c.02.04.032.08.045.122zM33.5 38.5a1.5 1.5 0 1 1-3.001 0 1.5 1.5 0 0 1 3.001 0m4 1.534a1.5 1.5 0 1 0-.001-3.001 1.5 1.5 0 0 0 .001 3.001m-9.5-1.5a1.5 1.5 0 1 1-3.001-.001 1.5 1.5 0 0 1 3.001.001" clip-rule="evenodd"/></svg>
